;Generated with Cura_SteamEngine 15.04
M109 S220.0
M42 P10 S1 ; Turn on LED
G21 ; set units to millimeters
G90 ; use absolute coordinates
M82 ; use absolute distances for extrusion
M204 S500
G1 F300.0 Z1.0
;Prime nozzle
G1 F9000.0 X77.0 Y-40.0
G1 F300.0 Z0.7
G92 E0
G1 F2000.0 Y40.0 E20.95
G1 X78.0
G1 Y-40.0 E41.9
G1 F300.0 Z1.0
G1 F5000.0 X0.0 Y0.0
G92 X77.7 Y52.3 ; Offset Origin from center to top right corner to accommodate Astroprint requirement
G92 E0
;Layer count: 27
;LAYER:0
M106 S255
G1 F18000.0 E-3.0
G1 F4800.0 X58.504 Y47.911 Z0.3
;TYPE:WALL-INNER
G1 F18000.0 E0.0
G1 F1200.0 X60.28 Y46.269 E0.12119
G1 X62.447 Y45.325 E0.23962
G1 X65.677 Y44.794 E0.40327
G1 X67.296 Y44.036 E0.49263
G1 X68.925 Y42.597 E0.60146
G1 X70.06 Y40.658 E0.71398
G1 X70.479 Y38.937 E0.80254
G1 X70.714 Y37.092 E0.89544
G1 X71.411 Y35.312 E0.99102
G1 X72.883 Y33.459 E1.10954
G1 X74.876 Y32.186 E1.22801
G1 X77.195 Y31.626 E1.34751
G1 X79.569 Y31.856 E1.46704
G1 X81.75 Y32.857 E1.58727
G1 X83.421 Y34.445 E1.70275
G1 X84.546 Y36.596 E1.8244
G1 X85.189 Y40.218 E2.00835
G1 X85.976 Y41.913 E2.10183
G1 X87.424 Y43.543 E2.211
G1 X89.329 Y44.659 E2.32153
G1 X91.451 Y45.11 E2.43014
G1 X93.8 Y45.596 E2.5503
G1 X95.887 Y46.844 E2.67212
G1 X97.373 Y48.613 E2.78785
G1 X98.246 Y50.857 E2.90851
G1 X98.331 Y53.236 E3.02778
G1 X97.637 Y55.508 E3.14682
G1 X96.25 Y57.421 E3.26521
G1 X94.31 Y58.785 E3.38401
G1 X92.033 Y59.443 E3.50276
G1 X89.723 Y59.806 E3.61973
G1 X88.14 Y60.541 E3.70697
G1 X86.475 Y62.003 E3.81793
G1 X85.34 Y63.942 E3.93046
G1 X84.921 Y65.663 E4.01901
G1 X84.686 Y67.508 E4.11191
G1 X83.99 Y69.286 E4.20738
G1 X82.854 Y70.816 E4.30265
G1 X80.936 Y72.222 E4.4218
G1 X79.14 Y72.846 E4.51692
G1 X76.765 Y72.932 E4.63598
G1 X74.494 Y72.237 E4.75497
G1 X72.921 Y71.175 E4.84991
G1 X71.671 Y69.723 E4.94573
G1 X70.722 Y67.542 E5.06487
G1 X70.194 Y64.323 E5.22795
G1 X69.459 Y62.74 E5.3152
G1 X67.997 Y61.075 E5.42616
G1 X66.058 Y59.94 E5.53868
G1 X64.337 Y59.521 E5.62723
G1 X62.492 Y59.286 E5.72014
G1 X60.714 Y58.59 E5.81561
G1 X59.182 Y57.452 E5.91105
G1 X57.774 Y55.529 E6.03046
G1 X57.154 Y53.74 E6.12517
G1 X57.069 Y51.357 E6.24464
G1 X57.763 Y49.094 E6.36325
G1 X58.504 Y47.911 E6.43299
G1 F4800.0 X59.397 Y49.035
G1 F1200.0 X58.708 Y50.412 E6.50997
G1 X58.392 Y52.335 E6.60759
G1 X58.825 Y54.491 E6.71792
G1 X59.897 Y56.2 E6.81904
G1 X61.66 Y57.52 E6.92954
G1 X63.172 Y58.017 E7.00916
G1 X66.05 Y58.473 E7.15487
G1 X67.991 Y59.366 E7.26174
G1 X69.623 Y60.705 E7.36733
G1 X70.868 Y62.41 E7.47293
G1 X71.654 Y64.403 E7.58007
G1 X72.074 Y67.242 E7.72345
G1 X72.83 Y68.964 E7.81762
G1 X73.829 Y70.129 E7.89436
G1 X75.059 Y70.971 E7.96889
G1 X76.552 Y71.493 E8.04798
G1 X78.469 Y71.557 E8.14406
G1 X79.891 Y71.175 E8.21768
G1 X81.6 Y70.103 E8.3188
G1 X82.92 Y68.34 E8.42929
G1 X83.417 Y66.828 E8.50891
G1 X83.873 Y63.95 E8.65463
G1 X84.77 Y62.003 E8.76186
G1 X86.128 Y60.353 E8.86874
G1 X87.81 Y59.132 E8.97269
G1 X89.803 Y58.346 E9.07984
G1 X92.642 Y57.926 E9.22321
G1 X94.364 Y57.17 E9.31738
G1 X95.529 Y56.171 E9.39412
G1 X96.371 Y54.941 E9.46865
G1 X96.893 Y53.448 E9.54774
G1 X96.957 Y51.531 E9.64382
G1 X96.575 Y50.109 E9.71744
G1 X95.503 Y48.4 E9.81856
G1 X93.74 Y47.08 E9.92905
G1 X92.228 Y46.583 E10.00867
G1 X89.359 Y46.13 E10.15392
G1 X87.441 Y45.254 E10.25935
G1 X85.813 Y43.932 E10.36423
G1 X84.518 Y42.166 E10.47379
G1 X83.882 Y40.678 E10.5546
G1 X83.115 Y36.71 E10.75691
G1 X82.11 Y35.02 E10.85544
G1 X80.341 Y33.629 E10.96835
G1 X78.848 Y33.107 E11.04745
G1 X76.931 Y33.043 E11.14353
G1 X75.509 Y33.425 E11.21714
G1 X73.8 Y34.497 E11.31827
G1 X72.48 Y36.26 E11.42876
G1 X71.983 Y37.772 E11.50838
G1 X71.527 Y40.65 E11.65409
G1 X70.634 Y42.591 E11.76096
G1 X69.272 Y44.247 E11.86821
G1 X67.59 Y45.468 E11.97216
G1 X65.597 Y46.254 E12.0793
G1 X62.758 Y46.674 E12.22268
G1 X61.036 Y47.43 E12.31685
G1 X59.871 Y48.429 E12.39359
G1 X59.397 Y49.035 E12.43197
G1 F4800.0 X59.728 Y49.26
G1 F1200.0 X58.9 Y51.232 E12.5393
G1 X58.84 Y53.016 E12.62872
G1 X59.532 Y55.027 E12.73545
G1 X60.682 Y56.406 E12.82542
G1 X62.549 Y57.449 E12.93274
G1 X66.165 Y58.089 E13.1164
G1 X68.199 Y59.025 E13.2284
G1 X69.906 Y60.422 E13.33873
G1 X71.225 Y62.229 E13.45064
G1 X72.04 Y64.296 E13.56178
G1 X72.46 Y67.137 E13.70527
G1 X73.165 Y68.745 E13.7932
G1 X74.66 Y70.272 E13.90043
G1 X76.632 Y71.1 E14.00776
G1 X78.416 Y71.16 E14.09718
G1 X80.427 Y70.468 E14.20391
G1 X81.806 Y69.318 E14.29388
G1 X82.849 Y67.451 E14.4012
G1 X83.489 Y63.835 E14.58486
G1 X84.425 Y61.801 E14.69685
G1 X85.855 Y60.061 E14.80951
G1 X87.629 Y58.775 E14.9191
G1 X89.703 Y57.958 E15.0306
G1 X92.537 Y57.54 E15.17373
G1 X94.145 Y56.835 E15.26166
G1 X95.672 Y55.34 E15.36889
G1 X96.5 Y53.368 E15.47622
G1 X96.56 Y51.584 E15.56563
G1 X95.868 Y49.573 E15.67237
G1 X94.718 Y48.194 E15.76234
G1 X92.851 Y47.151 E15.86966
G1 X89.24 Y46.513 E16.05305
G1 X87.229 Y45.593 E16.16365
G1 X85.524 Y44.209 E16.27349
G1 X84.177 Y42.378 E16.3872
G1 X83.358 Y40.293 E16.49924
G1 X82.94 Y37.463 E16.64218
G1 X82.235 Y35.855 E16.73011
G1 X80.74 Y34.328 E16.83734
G1 X78.768 Y33.5 E16.94467
G1 X76.984 Y33.44 E17.03409
G1 X74.973 Y34.132 E17.14082
G1 X73.594 Y35.282 E17.23079
G1 X72.551 Y37.149 E17.33811
G1 X71.911 Y40.765 E17.52177
G1 X70.975 Y42.799 E17.63376
G1 X69.545 Y44.539 E17.74642
G1 X67.771 Y45.825 E17.85601
G1 X65.699 Y46.641 E17.9674
G1 X62.863 Y47.06 E18.11064
G1 X61.255 Y47.765 E18.19857
G1 X59.728 Y49.26 E18.3058
G1 F4800.0 X57.894 Y48.073
G1 F1200.0 X59.22 Y46.57 E18.40608
G1 X60.917 Y45.455 E18.50767
G1 X62.354 Y44.935 E18.584
G1 X65.55 Y44.414 E18.74585
G1 X67.077 Y43.701 E18.83012
G1 X68.62 Y42.338 E18.9332
G1 X69.686 Y40.515 E19.03896
G1 X70.082 Y38.886 E19.12277
G1 X70.457 Y36.524 E19.2424
G1 X71.309 Y34.701 E19.34307
G1 X72.99 Y32.846 E19.46851
G1 X74.724 Y31.816 E19.56941
G1 X77.154 Y31.228 E19.69466
G1 X78.677 Y31.271 E19.77079
G1 X80.176 Y31.623 E19.8477
G1 X82.364 Y32.808 E19.97234
G1 X84.066 Y34.661 E20.09835
G1 X85.065 Y36.955 E20.2237
G1 X85.574 Y40.105 E20.38316
G1 X86.311 Y41.694 E20.47078
G1 X87.675 Y43.231 E20.57366
G1 X89.484 Y44.288 E20.67856
G1 X91.489 Y44.711 E20.78116
G1 X93.949 Y45.224 E20.90707
G1 X95.713 Y46.196 E21.00778
G1 X97.164 Y47.602 E21.10888
G1 X98.367 Y49.797 E21.23425
G1 X98.791 Y52.263 E21.35962
G1 X98.537 Y54.253 E21.45996
G1 X97.77 Y56.104 E21.56017
G1 X96.529 Y57.709 E21.66167
G1 X94.484 Y59.146 E21.78684
G1 X93.046 Y59.665 E21.86323
G1 X89.85 Y60.186 E22.02508
G1 X88.353 Y60.881 E22.10759
G1 X86.78 Y62.262 E22.21241
G1 X85.714 Y64.085 E22.31817
G1 X85.318 Y65.714 E22.40198
G1 X84.943 Y68.077 E22.52166
G1 X84.342 Y69.478 E22.59783
G1 X82.781 Y71.44 E22.72343
G1 X81.111 Y72.582 E22.82465
G1 X79.215 Y73.239 E22.92501
G1 X76.719 Y73.329 E23.05014
G1 X74.77 Y72.805 E23.15108
G1 X72.654 Y71.474 E23.2763
G1 X71.081 Y69.518 E23.40207
G1 X70.334 Y67.642 E23.50306
G1 X69.814 Y64.45 E23.66471
G1 X69.119 Y62.953 E23.74722
G1 X67.738 Y61.38 E23.85204
G1 X65.915 Y60.314 E23.9578
G1 X64.286 Y59.918 E24.04161
G1 X61.923 Y59.543 E24.16129
G1 X60.522 Y58.942 E24.23746
G1 X58.904 Y57.74 E24.33826
G1 X57.667 Y56.167 E24.43834
G1 X56.889 Y54.345 E24.53744
G1 X56.608 Y52.302 E24.64061
G1 X57.019 Y49.834 E24.76595
G1 X57.894 Y48.073 E24.8643
G1 F4800.0 X57.567 Y47.842
;TYPE:WALL-OUTER
G1 F1200.0 X58.963 Y46.264 E24.9697
G1 X60.734 Y45.098 E25.07579
G1 X62.75 Y44.44 E25.18187
G1 X65.423 Y44.034 E25.31704
G1 X67.474 Y42.918 E25.43416
G1 X68.575 Y41.741 E25.51477
G1 X69.312 Y40.371 E25.59253
G1 X69.755 Y37.927 E25.71699
G1 X70.27 Y35.856 E25.82375
G1 X71.268 Y34.058 E25.92662
G1 X72.741 Y32.533 E26.0327
G1 X74.563 Y31.449 E26.13877
G1 X76.609 Y30.883 E26.24496
G1 X78.735 Y30.875 E26.35133
G1 X80.774 Y31.422 E26.45693
G1 X82.616 Y32.498 E26.56365
G1 X84.061 Y33.964 E26.66661
G1 X85.135 Y35.865 E26.77587
G1 X85.637 Y37.871 E26.87932
G1 X85.958 Y39.992 E26.98658
G1 X86.646 Y41.475 E27.06836
G1 X87.926 Y42.918 E27.16493
G1 X89.617 Y43.906 E27.263
G1 X91.527 Y44.313 E27.3608
G1 X93.604 Y44.679 E27.4663
G1 X95.531 Y45.583 E27.57279
G1 X97.136 Y46.948 E27.67819
G1 X98.341 Y48.71 E27.78498
G1 X99.033 Y50.712 E27.89095
G1 X99.175 Y52.823 E27.9968
G1 X98.76 Y54.894 E28.10246
G1 X97.832 Y56.759 E28.20667
G1 X96.436 Y58.337 E28.31207
G1 X94.657 Y59.507 E28.4186
G1 X92.65 Y60.16 E28.52417
G1 X89.977 Y60.566 E28.65934
G1 X87.926 Y61.681 E28.77644
G1 X86.825 Y62.859 E28.85708
G1 X86.088 Y64.229 E28.93484
G1 X85.645 Y66.673 E29.0593
G1 X85.131 Y68.743 E29.166
G1 X84.131 Y70.543 E29.269
G1 X82.654 Y72.071 E29.37533
G1 X80.836 Y73.151 E29.48112
G1 X78.789 Y73.718 E29.58738
G1 X76.66 Y73.725 E29.69389
G1 X74.622 Y73.177 E29.79946
G1 X72.822 Y72.13 E29.90362
G1 X71.298 Y70.583 E30.01228
G1 X70.288 Y68.787 E30.11537
G1 X69.762 Y66.724 E30.22189
G1 X69.434 Y64.577 E30.33052
G1 X68.319 Y62.526 E30.44762
G1 X67.141 Y61.425 E30.52826
G1 X65.771 Y60.688 E30.60602
G1 X63.327 Y60.245 E30.73048
G1 X61.255 Y59.73 E30.83729
G1 X59.456 Y58.73 E30.94025
G1 X57.929 Y57.254 E31.04651
G1 X56.849 Y55.436 E31.1523
G1 X56.282 Y53.389 E31.25856
G1 X56.275 Y51.258 E31.36517
G1 X56.823 Y49.223 E31.4706
G1 X57.567 Y47.842 E31.54897
G1 F4800.0 X60.059 Y49.486
G1 F1200.0 X59.293 Y51.311 E31.6483
G1 X59.237 Y52.962 E31.73105
G1 X59.881 Y54.83 E31.83021
G1 X60.943 Y56.101 E31.91318
G1 X62.671 Y57.067 E32.01254
G1 X66.284 Y57.707 E32.19605
G1 X68.419 Y58.69 E32.31362
G1 X70.196 Y60.146 E32.42852
G1 X71.576 Y62.036 E32.54558
G1 X72.432 Y64.212 E32.66255
G1 X73.043 Y67.633 E32.83649
G1 X73.899 Y69.058 E32.91977
G1 X75.45 Y70.273 E33.01863
G1 X77.366 Y70.796 E33.11829
G1 X79.011 Y70.631 E33.20111
G1 X80.529 Y69.931 E33.28484
G1 X81.899 Y68.526 E33.3833
G1 X82.628 Y66.686 E33.48262
G1 X83.105 Y63.722 E33.63275
G1 X84.092 Y61.577 E33.75086
G1 X85.584 Y59.766 E33.86822
G1 X87.436 Y58.424 E33.98261
G1 X89.612 Y57.568 E34.09957
G1 X93.033 Y56.957 E34.27351
G1 X94.458 Y56.101 E34.35679
G1 X95.673 Y54.55 E34.45566
G1 X96.196 Y52.634 E34.55532
G1 X96.031 Y50.989 E34.63813
G1 X95.331 Y49.471 E34.72186
G1 X93.926 Y48.101 E34.82033
G1 X92.086 Y47.372 E34.91965
G1 X89.121 Y46.895 E35.06982
G1 X87.012 Y45.929 E35.18584
G1 X85.236 Y44.487 E35.30026
G1 X83.8 Y42.519 E35.42216
G1 X82.967 Y40.383 E35.53679
G1 X82.357 Y36.967 E35.71048
G1 X81.501 Y35.542 E35.79377
G1 X79.95 Y34.327 E35.89263
G1 X78.034 Y33.804 E35.99229
G1 X76.389 Y33.969 E36.0751
G1 X74.871 Y34.669 E36.15884
G1 X73.501 Y36.074 E36.2573
G1 X72.772 Y37.914 E36.35662
G1 X72.295 Y40.878 E36.50675
G1 X71.31 Y43.019 E36.62463
G1 X69.818 Y44.832 E36.74207
G1 X67.964 Y46.176 E36.8566
G1 X65.788 Y47.032 E36.97356
G1 X62.367 Y47.643 E37.1475
G1 X60.942 Y48.499 E37.23078
G1 X60.059 Y49.486 E37.297
G1 F4800.0 X59.802 Y49.334
G1 X60.135 Y47.972
;TYPE:SKIN
G1 F1200.0 X59.351 Y47.189 E37.35228
G1 F4800.0 X59.065 Y47.468
G1 F1200.0 X59.849 Y48.252 E37.40759
G1 F4800.0 X59.59 Y48.559
G1 F1200.0 X58.799 Y47.768 E37.4634
G1 F4800.0 X58.549 Y48.083
G1 F1200.0 X59.341 Y48.876 E37.51932
G1 F4800.0 X59.122 Y49.223
G1 F1200.0 X58.315 Y48.416 E37.57625
G1 F4800.0 X58.098 Y48.764
G1 F1200.0 X58.913 Y49.579 E37.63376
G1 F4800.0 X58.742 Y49.974
G1 F1200.0 X57.9 Y49.131 E37.6932
G1 F4800.0 X57.721 Y49.519
G1 F1200.0 X58.573 Y50.371 E37.75331
G1 F4800.0 X58.453 Y50.816
G1 F1200.0 X57.561 Y49.924 E37.81625
G1 F4800.0 X57.424 Y50.353
G1 F1200.0 X58.349 Y51.277 E37.88148
G1 F4800.0 X58.281 Y51.775
G1 F1200.0 X57.311 Y50.805 E37.94992
G1 F4800.0 X57.221 Y51.281
G1 F1200.0 X58.252 Y52.313 E38.02269
G1 F4800.0 X58.291 Y52.917
G1 F1200.0 X57.165 Y51.791 E38.10214
G1 F4800.0 X57.149 Y52.34
G1 F1200.0 X58.407 Y53.598 E38.1909
G1 F4800.0 X58.646 Y54.404
G1 F1200.0 X57.185 Y52.942 E38.29401
G1 F4800.0 X57.274 Y53.597
G1 F1200.0 X59.215 Y55.538 E38.43096
G1 F4800.0 X58.807 Y56.827
G1 F1200.0 X59.724 Y57.744 E38.49566
G1 F4800.0 X61.219 Y58.674
G1 F1200.0 X57.799 Y55.254 E38.73696
G1 F4800.0 X57.453 Y54.342
G1 F1200.0 X62.136 Y59.025 E39.06737
G1 F4800.0 X62.891 Y59.214
G1 F1200.0 X60.975 Y57.298 E39.20256
G1 F4800.0 X62.093 Y57.85
G1 F1200.0 X63.563 Y59.32 E39.30627
G1 F4800.0 X64.176 Y59.367
G1 F1200.0 X62.902 Y58.094 E39.39612
G1 F4800.0 X63.577 Y58.203
G1 F1200.0 X64.84 Y59.466 E39.48524
G1 F4800.0 X65.584 Y59.645
G1 F1200.0 X64.2 Y58.26 E39.58292
G1 F4800.0 X64.842 Y58.337
G1 F1200.0 X66.489 Y59.984 E39.69912
G1 F4800.0 X67.383 Y59.18
G1 F1200.0 X70.813 Y62.61 E39.94113
G1 F4800.0 X71.246 Y63.609
G1 F1200.0 X66.37 Y58.733 E40.28516
G1 F4800.0 X65.554 Y58.483
G1 F1200.0 X67.881 Y60.81 E40.44934
G1 F4800.0 X69.166 Y62.095
G1 F1200.0 X71.522 Y64.451 E40.61557
G1 F4800.0 X71.656 Y65.15
G1 F1200.0 X70.034 Y63.529 E40.72997
G1 F4800.0 X70.366 Y64.426
G1 F1200.0 X71.728 Y65.788 E40.82607
G1 F4800.0 X71.786 Y66.412
G1 F1200.0 X70.544 Y65.17 E40.9137
G1 F4800.0 X70.613 Y65.805
G1 F1200.0 X71.897 Y67.088 E41.00426
G1 F4800.0 X72.139 Y67.897
G1 F1200.0 X70.676 Y66.433 E41.10752
G1 F4800.0 X70.765 Y67.088
G1 F1200.0 X72.704 Y69.027 E41.24432
G1 F4800.0 X72.264 Y70.284
G1 F1200.0 X73.231 Y71.251 E41.31255
G1 F4800.0 X74.454 Y70.777
G1 F1200.0 X76.391 Y72.714 E41.44922
G1 F4800.0 X77.062 Y72.819
G1 F1200.0 X75.594 Y71.352 E41.55276
G1 F4800.0 X76.407 Y71.598
G1 F1200.0 X77.657 Y72.848 E41.64095
G1 F4800.0 X78.206 Y72.832
G1 F1200.0 X77.08 Y71.706 E41.7204
G1 F4800.0 X77.686 Y71.746
G1 F1200.0 X78.703 Y72.764 E41.79219
G1 F4800.0 X79.193 Y72.688
G1 F1200.0 X78.22 Y71.714 E41.86087
G1 F4800.0 X78.72 Y71.649
G1 F1200.0 X79.646 Y72.575 E41.92621
G1 F4800.0 X80.073 Y72.436
G1 F1200.0 X79.19 Y71.553 E41.98851
G1 F4800.0 X79.618 Y71.416
G1 F1200.0 X80.48 Y72.278 E42.04933
G1 F4800.0 X80.867 Y72.099
G1 F1200.0 X80.03 Y71.262 E42.10838
G1 F4800.0 X80.41 Y71.076
G1 F1200.0 X81.233 Y71.899 E42.16645
G1 F4800.0 X81.583 Y71.683
G1 F1200.0 X80.781 Y70.881 E42.22303
G1 F4800.0 X81.124 Y70.659
G1 F1200.0 X81.914 Y71.448 E42.27874
G1 F4800.0 X82.224 Y71.193
G1 F1200.0 X81.445 Y70.415 E42.33366
G1 F4800.0 X81.747 Y70.15
G1 F1200.0 X82.522 Y70.925 E42.38834
G1 F4800.0 X82.811 Y70.649
G1 F1200.0 X82.026 Y69.864 E42.44373
G1 F4800.0 X82.293 Y69.565
G1 F1200.0 X83.07 Y70.342 E42.49855
G1 F4800.0 X83.329 Y70.036
G1 F1200.0 X82.535 Y69.242 E42.55457
G1 F4800.0 X82.763 Y68.904
G1 F1200.0 X83.557 Y69.698 E42.61059
G1 F4800.0 X83.779 Y69.354
G1 F1200.0 X82.966 Y68.541 E42.66795
G1 F4800.0 X83.15 Y68.159
G1 F1200.0 X83.976 Y68.985 E42.72623
G1 F4800.0 X84.157 Y68.601
G1 F1200.0 X83.309 Y67.752 E42.7861
G1 F4800.0 X83.437 Y67.315
G1 F1200.0 X84.318 Y68.196 E42.84826
G1 F4800.0 X84.455 Y67.767
G1 F1200.0 X83.551 Y66.863 E42.91204
G1 F4800.0 X83.609 Y66.355
G1 F1200.0 X84.576 Y67.322 E42.98027
G1 F4800.0 X84.661 Y66.842
G1 F1200.0 X83.657 Y65.838 E43.05111
G1 F4800.0 X83.71 Y65.326
G1 F1200.0 X84.727 Y66.342 E43.12283
G1 F4800.0 X84.767 Y65.817
G1 F1200.0 X83.793 Y64.843 E43.19155
G1 F4800.0 X83.898 Y64.382
G1 F1200.0 X84.837 Y65.321 E43.2578
G1 F4800.0 X84.922 Y64.84
G1 F1200.0 X84.023 Y63.941 E43.32123
G1 F4800.0 X84.169 Y63.522
G1 F1200.0 X85.049 Y64.401 E43.38328
G1 F4800.0 X85.183 Y63.97
G1 F1200.0 X84.334 Y63.121 E43.44318
G1 F4800.0 X84.518 Y62.739
G1 F1200.0 X85.354 Y63.575 E43.50217
G1 F4800.0 X85.533 Y63.188
G1 F1200.0 X84.716 Y62.371 E43.55981
G1 F4800.0 X84.927 Y62.016
G1 F1200.0 X85.738 Y62.827 E43.61703
G1 F4800.0 X85.954 Y62.478
G1 F1200.0 X85.154 Y61.678 E43.67348
G1 F4800.0 X85.399 Y61.357
G1 F1200.0 X86.187 Y62.146 E43.72911
G1 F4800.0 X86.44 Y61.833
G1 F1200.0 X85.656 Y61.049 E43.78442
G1 F4800.0 X85.926 Y60.753
G1 F1200.0 X86.713 Y61.54 E43.83995
G1 F4800.0 X86.989 Y61.251
G1 F1200.0 X86.208 Y60.469 E43.89509
G1 F4800.0 X86.508 Y60.204
G1 F1200.0 X87.29 Y60.986 E43.95026
G1 F4800.0 X87.615 Y60.745
G1 F1200.0 X86.821 Y59.951 E44.00629
G1 F4800.0 X87.147 Y59.711
G1 F1200.0 X87.944 Y60.508 E44.06252
G1 F4800.0 X88.297 Y60.296
G1 F1200.0 X87.486 Y59.484 E44.11977
G1 F4800.0 X87.842 Y59.275
G1 F1200.0 X88.664 Y60.097 E44.17777
G1 F4800.0 X89.049 Y59.916
G1 F1200.0 X88.215 Y59.083 E44.23658
G1 F4800.0 X88.607 Y58.909
G1 F1200.0 X89.456 Y59.758 E44.29648
G1 F4800.0 X89.88 Y59.616
G1 F1200.0 X89.015 Y58.751 E44.35751
G1 F4800.0 X89.427 Y58.597
G1 F1200.0 X90.333 Y59.503 E44.42143
